.cache/img/_logos/logo-cash-wheel.svg

<svg xmlns="http://www.w3.org/2000/svg" width="160" height="127" viewBox="0 0 160 127"><path d="M38.7 23.51c-.19-6-1.52-7-2.64-7-1.93 0-2.83 3.91-2.83 13 0 12.11 1.68 13.17 3.5 13.17 2 0 3.79-3 3.79-11.3h7.77C48.29 48.64 43.38 59 35.43 59c-7.59 0-13-9.52-13-29.44C22.45 8.62 28.36 0 33.16 0c2.75 0 5.24 2 6.91 9.11V1h8.22v22.51zM69.48.81L76 42.38h2.53v15.53h-16V42.38h2.64l-.67-5.62h-4.57l-.79 5.62h2.57v15.53H49V42.38h2.61L58.81.81zm-7.06 17.73l-1.49 10.74h2.71zM79.29 57.91V39.2H89c.11 2.85.78 4.15 3 4.15 1.6 0 2.46-.57 2.46-2.6 0-1.38-.41-2.44-2.27-2.68L89 37.66c-5.87-.73-9.59-7.73-9.59-19.28C79.44 7.16 83.61 0 89.07 0c2 0 4.94.73 6.17 7.32v-6.1h8.55v18.3H94.5c-.11-2.85-.78-3.42-2.42-3.42-1.37 0-2.42.25-2.42 2.44 0 1.39.41 2 1.86 2h2.42c6 0 10.6 5.61 10.6 19.28 0 11.22-4 19.11-10 19.11-2 0-5.36-1.14-6.66-8v6.91zM122.19 1h15.36v15.51H134v25.87h3.54v15.53h-15.35V42.38h2v-9.19h-4.83v9.19h2v15.53H106V42.38h3.53V16.51H106V1h15.36v15.51h-2v9.19h4.83v-9.19h-2zM8.59 126.31L2.71 84.5H0V69h15.09v15.5h-2l2.27 15.78 2.3-15.78h-1.75V69h11.71v15.5h-1.86L28 100.28l2.34-15.78h-1.9V69h12.64v15.5h-3.79l-6.62 41.81h-8.81l-2.19-15.62-2.46 15.62zM58 69h15.35v15.5h-3.53v25.87h3.53v15.53H58v-15.53h2v-9.19h-4.83v9.19h2v15.53H41.82v-15.53h3.53V84.5h-3.53V69h15.36v15.5h-2v9.19H60V84.5h-2zM102.42 95h-7V84.5h-7.24v9H90v-4.93h3.38v18H90v-5.62h-1.82v9.44h7.25V99.55h7v26.35h-27.6v-15.53h3.53V84.5h-3.53V69h27.59zM131.86 95h-7V84.5h-7.25v9h1.86v-4.93h3.38v18h-3.38v-5.62h-1.86v9.44h7.25V99.55h7v26.35h-27.59v-15.53h3.54V84.5h-3.54V69h27.59zM133.72 110.37h3.53V84.5h-3.53V69h16.95v15.5h-3.61v25.87h6.14V99.31h6.8v26.59h-26.28z" fill="#fff"/></svg>

<svg xmlns="http://www.w3.org/2000/svg" width="160" height="127" viewBox="0 0 160 127"><path d="M38.7,23.51c-.19-6-1.52-7-2.64-7-1.93,0-2.83,3.91-2.83,13,0,12.11,1.68,13.17,3.5,13.17,2,0,3.79-3,3.79-11.3h7.77C48.29,48.64,43.38,59,35.43,59c-7.59,0-13-9.52-13-29.44C22.45,8.62,28.36,0,33.16,0c2.75,0,5.24,2,6.91,9.11V1h8.22V23.51Z" fill="#fff"/><path d="M69.48.81,76,42.38h2.53V57.91h-16V42.38h2.64l-.67-5.62H59.93l-.79,5.62h2.57V57.91H49V42.38h2.61L58.81.81ZM62.42,18.54,60.93,29.28h2.71Z" fill="#fff"/><path d="M79.29,57.91V39.2H89c.11,2.85.78,4.15,3,4.15,1.6,0,2.46-.57,2.46-2.6,0-1.38-.41-2.44-2.27-2.68L89,37.66c-5.87-.73-9.59-7.73-9.59-19.28C79.44,7.16,83.61,0,89.07,0c2,0,4.94.73,6.17,7.32V1.22h8.55v18.3H94.5c-.11-2.85-.78-3.42-2.42-3.42-1.37,0-2.42.25-2.42,2.44,0,1.39.41,2,1.86,2h2.42c6,0,10.6,5.61,10.6,19.28,0,11.22-4,19.11-10,19.11-2,0-5.36-1.14-6.66-8v6.91Z" fill="#fff"/><path d="M122.19,1h15.36V16.51H134V42.38h3.54V57.91H122.19V42.38h2V33.19h-4.83v9.19h2V57.91H106V42.38h3.53V16.51H106V1h15.36V16.51h-2V25.7h4.83V16.51h-2Z" fill="#fff"/><path d="M8.59,126.31,2.71,84.5H0V69H15.09V84.5h-2l2.27,15.78,2.3-15.78H15.91V69H27.62V84.5H25.76L28,100.28,30.34,84.5h-1.9V69H41.08V84.5H37.29l-6.62,41.81H21.86l-2.19-15.62-2.46,15.62Z" fill="#fff"/><path d="M58,69H73.35V84.5H69.82v25.87h3.53V125.9H58V110.37h2v-9.19H55.17v9.19h2V125.9H41.82V110.37h3.53V84.5H41.82V69H57.18V84.5h-2v9.19H60V84.5H58Z" fill="#fff"/><path d="M102.42,95h-7V84.5H88.18v9H90V88.57h3.38v18H90v-5.62H88.18v9.44h7.25V99.55h7V125.9H74.83V110.37h3.53V84.5H74.83V69h27.59Z" fill="#fff"/><path d="M131.86,95h-7V84.5h-7.25v9h1.86V88.57h3.38v18h-3.38v-5.62h-1.86v9.44h7.25V99.55h7V125.9H104.27V110.37h3.54V84.5h-3.54V69h27.59Z" fill="#fff"/><path d="M133.72,110.37h3.53V84.5h-3.53V69h16.95V84.5h-3.61v25.87h6.14V99.31H160V125.9H133.72Z" fill="#fff"/></svg>
